X: 9051
T: Da Forfeit O' Da Ship
R: reel
M: 4/4
K: Dmajor
A|:"D"d2 dB dA F2|"D"ABAF EDEF|"D"AAAF ABde|"G"f2 ed "A"B2 A2:|
|:"D"d2 fd adfd|"G"d2 fd "A"eAAf|"D"aa2 e fdef|"G"dBAF "A"E3 A:|

